X:013
T: Gobby O (The)
N: O'Farrell's Pocket Companion v.1 (Sky ed. p.21)
D: "O'Sullivan Meets O'Farrell" track 15a
M: 6/8
L: 1/8
R: jig
Q: 320
K: Ador
e/d/|c2A AcA|E2A A2c| BcB BAG|dBG GAB|
ced c2A| BcB gfg|edc BAB|E2A A2 :|
z|A2B c2d|e2f g3|faf g2e|dBG GAB|
ced c2A|BcB efg|edc BAB| E2A A2 :|
